X:270
T: Thrush in the Storm
S: "Ceol Rince na hEireann" 1/167
Z: B.Black
L: 1/8
M: 4/4
R: reel
K: D
FAAF ABde|fgfe dBBe|dBAF ABAF|EGFE DB B2|
FAAF ABde|fgfe dBBe|dBAF ABde|fdad fd d2 :|
fedf edBc|defd BAFA|DF F2 AF F2|edfd eB B2|
fedf edBc|defd BAFB|ABAF ABde|fdad fd d2 :|
